X: 36
T:Betty Lou's Reel
M:4/4
L:1/8
C:Donald Angus Beaton
S:Arr. The Rankin Family
R:Reel
K:D
|:f2 Bc defe|ceaf efAb|(3fff Bc defe|1cAac (3BBB B2:|2ceac B2 BA||!
|:FBBc d2 cB|ceaf ecBA|FBBc d2 cB|1cAac (3BBB BA:|2ceac (3BBB B2||!
% Output from ABC2Win  Version 2.0 New on 2/4/96
